X:2428
L:1/8
M:2/2
K:A
 cB || A(F D)F E2 CE | A,ECE (3dcB cB | A F3 E A,3 | CEAB cdBc | (3ABA FA E2 CE | A,ECE (3dcB cB | 
 A F3 E A,3 | CEAB (3cBA B(G || A)c (3ccc e(cfc | e)cAc fe (3fga | ec (3ccc f(ce)c | d2 c(d Bc)df | 
 e c3 (3ABc f(c | e)(cA)c [df]3 (g |{b} ag)fe{g} fedc | (3dcB{c} BA BdcB ||

